build/img/apply-colors.svg

<svg width="18" height="18" viewBox="0 0 18 18" fill="none" xmlns="http://www.w3.org/2000/svg">
<path d="M6.16211 10.1658C6.56193 9.53278 7.07365 8.77718 7.66211 7.97652M8.16211 12.1658C8.56458 11.9646 9.291 11.4192 10.1621 10.6721M10.1621 10.6721C13.6198 7.70685 19.3572 1.56521 16.1621 1.16583C13.6018 0.84579 10.0173 4.77205 7.66211 7.97652M10.1621 10.6721L7.66211 7.97652" stroke="#36373C" stroke-linecap="round"/>
<path d="M7.94439 13.4668C7.94439 15.0561 6.54945 16.2621 4.65971 16.6905C3.56628 16.9384 2.52807 16.9061 1.8258 16.7455C1.50928 16.6731 1.29703 16.5829 1.18005 16.5074C1.2198 16.4419 1.26448 16.3722 1.31219 16.2978C1.65933 15.7563 2.16665 14.9649 2.09784 13.7372C2.10461 12.0036 3.36759 10.4668 4.9444 10.4668C6.60125 10.4668 7.94439 11.8099 7.94439 13.4668Z" stroke="#36373C"/>
</svg>

<svg width="18" height="18" fill="none" xmlns="http://www.w3.org/2000/svg"><path d="M6.162 10.166c.4-.633.912-1.389 1.5-2.19m.5 4.19c.403-.201 1.129-.747 2-1.494m0 0c3.458-2.965 9.195-9.107 6-9.506-2.56-.32-6.145 3.606-8.5 6.81m2.5 2.696-2.5-2.695" stroke="#36373C" stroke-linecap="round"/><path d="M7.944 13.467c0 1.59-1.395 2.795-3.284 3.223-1.094.248-2.132.216-2.834.055-.317-.072-.529-.162-.646-.238l.132-.21c.347-.54.855-1.332.786-2.56.007-1.733 1.27-3.27 2.846-3.27a3 3 0 0 1 3 3Z" stroke="#36373C"/></svg>
